school/img/menu/2.svg

<svg width="67" height="59" viewBox="0 0 67 59" fill="none" xmlns="http://www.w3.org/2000/svg">
<path d="M20.5179 0.077858C17.7545 0.528177 15.3151 2.96612 14.3064 6.28141C13.8662 7.74107 13.695 9.82962 13.9029 11.3592C14.1719 13.3468 14.8566 15.1015 15.9265 16.5223C17.2715 18.3158 19.0017 19.364 20.9092 19.5426C24.7975 19.9075 28.2456 16.6388 29.0709 11.7939C29.2054 10.9865 29.2544 9.32495 29.1688 8.52524C29.0098 7.11994 28.5757 5.62922 27.9949 4.49565C26.3626 1.31236 23.4586 -0.395756 20.5179 0.077858Z" fill="#0357ED"/>
<path d="M55.4266 16.1578C55.5917 15.9326 58.0922 12.5941 60.984 8.73528L66.2418 1.73203L66.6208 2.15905L66.9999 2.58608L66.8654 2.78018C66.792 2.88888 62.5919 8.49459 57.5359 15.2416C52.4798 21.9964 48.2736 27.6099 48.188 27.7264L48.0413 27.936L48.2247 28.4096C48.4692 29.0307 48.5671 29.6363 48.5243 30.3506C48.4876 31.0417 48.3225 31.6395 47.9985 32.2606C47.8701 32.5168 47.0509 33.7979 46.1888 35.1256C45.3207 36.4455 43.4438 39.326 42.0193 41.5155C40.5887 43.705 39.2865 45.6848 39.1153 45.9178C38.9502 46.1507 38.6078 46.5156 38.3572 46.733C37.0488 47.8433 35.6121 47.6336 34.5728 46.174C34.0042 45.3743 33.668 44.4892 33.1972 42.5403C33.0566 41.9658 32.9221 41.4068 32.8915 41.2981C32.8304 41.0807 32.274 38.8369 32.0845 38.0371C32.0173 37.7576 31.9439 37.4471 31.9133 37.3384C31.8828 37.2297 31.7177 36.5775 31.5465 35.8787L31.2347 34.6209H30.3788C29.9142 34.6209 29.529 34.6365 29.529 34.6597C29.529 34.683 29.6574 35.2576 29.8102 35.9253C29.9631 36.593 30.1098 37.2452 30.1404 37.3772C30.1709 37.5014 30.6111 39.4425 31.1186 41.6863C31.626 43.9301 32.0662 45.8634 32.0967 45.9954C32.2068 46.4923 33.7352 53.2471 33.778 53.4024L33.8147 53.5654H21.8074H9.79396L9.90401 53.0375C10.063 52.2766 10.387 50.7315 10.5154 50.1492C10.7294 49.1399 10.9556 48.0762 11.0656 47.5482C11.1757 47.0358 11.3835 46.0575 11.6158 44.9472C11.677 44.6677 11.7993 44.0932 11.891 43.6662C12.1905 42.222 12.2945 41.7484 12.4718 40.9099C12.6429 40.1257 12.7285 39.7064 13.0159 38.3244C13.132 37.7965 13.2238 37.3539 13.6334 35.4129L13.8046 34.6209H12.9853H12.1722L12.0499 35.1411C11.9827 35.436 11.8727 35.9481 11.7994 36.2897L11.7993 36.2902C11.7259 36.6318 11.622 37.1365 11.5608 37.416C11.4997 37.6955 11.3285 38.4642 11.1879 39.1241C11.0473 39.7841 10.8272 40.8012 10.6988 41.3757C10.5704 41.9503 10.3503 42.9674 10.2097 43.6273C10.0691 44.2873 9.84899 45.3044 9.7206 45.8789C9.59221 46.4535 9.40269 47.3464 9.29264 47.8588C9.18871 48.3712 9.07255 48.8759 9.04809 48.9846C9.02364 49.0933 8.90748 49.598 8.80354 50.1104C8.6935 50.6228 8.49786 51.5157 8.37559 52.0902C8.2472 52.6648 8.12492 53.2316 8.10658 53.348L8.0699 53.5654H4.6768C1.99899 53.5654 1.28369 53.5421 1.28369 53.4645C1.28369 53.4179 1.35706 53.053 1.43653 52.6726C1.52213 52.2843 1.66274 51.6399 1.74833 51.2362C1.83392 50.8325 1.98063 50.1493 2.07234 49.7223L2.07236 49.7222C2.17018 49.2952 2.33525 48.5265 2.44529 48.0141C2.55534 47.5016 2.74487 46.6088 2.87325 46.0342C3.10557 44.9705 3.30733 44.0233 3.66804 42.3462C3.77808 41.8338 3.96761 40.9409 4.09599 40.3664C4.22438 39.7918 4.41391 38.899 4.52395 38.3865C4.634 37.8741 4.82352 36.9812 4.95191 36.4067C5.0803 35.8321 5.26982 34.9393 5.37987 34.4268C6.27247 30.242 6.41309 29.6674 6.65763 28.9919C7.46464 26.8102 9.01752 24.6052 10.7966 23.13C11.7809 22.3148 13.0954 21.6005 14.2753 21.2433C14.8109 21.081 14.9527 21.0803 21.0111 21.0496L21.0921 21.0492C27.8416 21.0182 28.0128 21.0259 29.2906 21.4219C31.9561 22.2449 34.1937 24.2636 35.7955 27.2838C36.4069 28.4484 37.0183 30.2963 37.4279 32.2529C37.4646 32.4237 37.5135 32.6488 37.5379 32.7575C37.593 32.9827 37.7886 33.8212 37.9476 34.5278L38.0576 35.0247L39.0725 33.4796C39.6288 32.6333 40.6682 31.0494 41.3835 29.9624C43.0647 27.408 43.3765 27.0043 43.9573 26.6316C44.856 26.0648 45.7303 26.0415 46.6657 26.5695C47.0753 26.8024 47.0875 26.8024 47.1915 26.6549C47.1426 26.7481 55.2616 16.383 55.4266 16.1578Z" fill="#0357ED"/>
<path d="M0 56.7484V59H20.8172H41.6343V56.7484V54.4968H20.8172H0V56.7484Z" fill="#0357ED"/>
</svg>

<svg width="67" height="59" fill="none" xmlns="http://www.w3.org/2000/svg"><path d="M20.518.078c-2.764.45-5.203 2.888-6.212 6.203-.44 1.46-.611 3.549-.403 5.078.269 1.988.954 3.742 2.024 5.163 1.345 1.794 3.075 2.842 4.982 3.02 3.889.365 7.337-2.903 8.162-7.748.134-.808.183-2.47.098-3.269-.16-1.405-.593-2.896-1.174-4.03-1.632-3.183-4.536-4.89-7.477-4.417z" fill="#0357ED"/><path d="M55.427 16.158c.165-.225 2.665-3.564 5.557-7.423l5.258-7.003.379.427.379.427-.135.194c-.073.109-4.273 5.715-9.33 12.462-5.055 6.754-9.261 12.368-9.347 12.484l-.147.21.184.474a4.38 4.38 0 01.3 1.94 4.481 4.481 0 01-.526 1.91c-.129.257-.948 1.538-1.81 2.866-.868 1.32-2.745 4.2-4.17 6.39-1.43 2.189-2.733 4.169-2.904 4.402a5.654 5.654 0 01-.758.815c-1.308 1.11-2.745.9-3.784-.559-.569-.8-.905-1.685-1.376-3.634-.14-.574-.275-1.133-.306-1.242-.06-.217-.617-2.461-.806-3.26-.068-.28-.141-.59-.172-.7-.03-.108-.195-.76-.366-1.46l-.312-1.257h-.856c-.465 0-.85.015-.85.039 0 .023.128.598.281 1.265.153.668.3 1.32.33 1.452.03.124.471 2.066.979 4.31.507 2.243.947 4.176.978 4.308.11.497 1.638 7.252 1.681 7.407l.037.163H9.794l.11-.527c.159-.761.483-2.306.611-2.889.214-1.01.44-2.073.55-2.6.11-.513.319-1.492.55-2.602.062-.28.184-.854.276-1.28.3-1.445.403-1.919.58-2.757.172-.784.258-1.204.545-2.586.116-.527.208-.97.617-2.911l.172-.792h-1.633l-.122.52c-.067.295-.177.807-.25 1.149-.074.342-.178.846-.24 1.126-.06.28-.232 1.048-.372 1.708-.14.66-.36 1.677-.49 2.252a285.9 285.9 0 00-.488 2.251c-.14.66-.361 1.677-.49 2.252-.128.575-.317 1.467-.427 1.98-.104.512-.22 1.017-.245 1.126-.024.108-.14.613-.244 1.125-.11.513-.306 1.406-.428 1.98a43.26 43.26 0 00-.27 1.258l-.036.217H4.677c-2.678 0-3.393-.023-3.393-.1 0-.047.073-.412.153-.792.085-.389.226-1.033.311-1.437l.324-1.514c.098-.427.263-1.196.373-1.708.11-.512.3-1.405.428-1.98.233-1.063.434-2.01.795-3.688.11-.512.3-1.405.428-1.98.128-.574.318-1.467.428-1.98.11-.512.3-1.405.428-1.98.128-.574.318-1.467.428-1.98.892-4.184 1.033-4.759 1.278-5.434.807-2.182 2.36-4.387 4.139-5.862.984-.815 2.298-1.53 3.478-1.887.536-.162.678-.163 6.736-.193h.081c6.75-.032 6.92-.024 8.199.372 2.665.823 4.903 2.842 6.504 5.862.612 1.164 1.223 3.012 1.633 4.969l.11.505c.055.225.25 1.063.41 1.77l.11.497 1.014-1.545 2.311-3.518c1.682-2.554 1.993-2.958 2.574-3.33.899-.567 1.773-.59 2.709-.063.41.233.422.233.526.086-.05.093 8.07-10.272 8.235-10.497zM0 56.748V59h41.634v-4.503H0v2.251z" fill="#0357ED"/></svg>
